public/avatar/item1/23.svg

<svg xmlns:xlink="http://www.w3.org/1999/xlink" height="65.4" width="80.15" xmlns="http://www.w3.org/2000/svg"><use height="34.5" transform="translate(46.55 22.8)" width="13.6" xlink:href="#a"/><defs><g id="a" fill-rule="evenodd"><path d="M17.05 9q2.05 0 2.05 2.1v30.3q0 2.1-2.05 2.1-2.1 0-2.1-2.1V11.1q0-2.1 2.1-2.1" fill="#351e02" transform="translate(-14.95 -9)"/><path d="m18.3 10.7.45-.1q5.05 1.35 7.7 6.5 2.35 4.5 2.1 10.2-.25 5.35-2.65 9.3-2.7 4.55-7.2 5.3l-.4-.1-.15-.4V11.1q0-.25.15-.4" fill="#351e02" transform="translate(-14.95 -9)"/><path d="M17.05 10q1.1 0 1.1 1.55v29.4q0 1.55-1.1 1.55t-1.1-1.55v-29.4q0-1.55 1.1-1.55" fill="#efad43" transform="translate(-14.95 -9)"/><path d="M25.55 17.55q2.15 4 2 9.25-.15 5.15-2.35 9-2.4 4.1-6.3 4.8V11.9q4.35 1.2 6.65 5.65" fill="#f76908" transform="translate(-14.95 -9)"/><path d="M23.95 17q2.2 2.5 2.35 5.3-1.9-2.7-7.4-3.7v-5.15q2.95 1.15 5.05 3.55" fill="#ffb02b" transform="translate(-14.95 -9)"/><path d="M21.5 16.75q2.35 1.15 4.3 3.9 1.6 2.2 1.65 3.2.3 5-.7 8.1-.2.9-2.5 2.25t-3.7 1.35q.9-.7 2.7-3.4 1.75-2.8 2.1-4.05 0-2.05-1.55-6.35-1.45-3.85-2.3-5" fill="#f8c606" transform="translate(-14.95 -9)"/><path d="m25.85 20.7.35 1.25.1 1.5-.4-.85q-1.1-1.5-2.8-2.55-.9-2.4-1.6-3.3 2.5 1.15 4.35 3.95" fill="#f8ed06" transform="translate(-14.95 -9)"/><path d="M15.95 14.25v-2.1l2.2.15v2.2q-.95-.6-2.2-.25" fill="#fff" transform="translate(-14.95 -9)"/><path d="M17.05 42.5q-1.1 0-1.1-1.55V33.8l2.2-.55v7.7q0 1.55-1.1 1.55m1.1-16.25v2.85l-2.1.3h-.1v-3.45l2.2.3" fill="#b57036" transform="translate(-14.95 -9)"/><path d="m25.35 27.6-4.5.95-1.95.4V26.3l.75.1 5.55.25.15.95m-1.1 6.6q2.3-1.35 2.5-2.25l.15-.45q-2 8-8 9.1V33l.8-.25q2.45-.95 4.7-2.6-2.35 4.35-3.85 5.4 1.4 0 3.7-1.35" fill="#d63b00" transform="translate(-14.95 -9)"/><path d="m27.5 27.5-.15 1.8-.45 2.2-.15.45q-.2.9-2.5 2.25t-3.7 1.35q1.5-1.05 3.85-5.4l3.1-2.65m-2.3-.85 2 .05-1 .65-.85.25-.15-.95" fill="#e69106" transform="translate(-14.95 -9)"/><path d="M19 15.75q.25-1.5.1-1.95 1.65.35 3.9 2.5 2.35 2.15 2.7 3.7-1-1.55-3.2-2.95-2.2-1.35-3.5-1.3" fill="#fff" transform="translate(-14.95 -9)"/></g></defs></svg>

<?xml version="1.0" encoding="UTF-8" standalone="no"?>
<svg xmlns:xlink="http://www.w3.org/1999/xlink" height="65.4px" width="80.15px" xmlns="http://www.w3.org/2000/svg">
  <g transform="matrix(1.0, 0.0, 0.0, 1.0, 31.6, 13.8)">
    <use height="34.5" transform="matrix(1.0, 0.0, 0.0, 1.0, 14.95, 9.0)" width="13.6" xlink:href="#shape0"/>
  </g>
  <defs>
    <g id="shape0" transform="matrix(1.0, 0.0, 0.0, 1.0, -14.95, -9.0)">
      <path d="M17.05 9.0 Q19.1 9.0 19.1 11.1 L19.1 41.4 Q19.1 43.5 17.05 43.5 14.95 43.5 14.95 41.4 L14.95 11.1 Q14.95 9.0 17.05 9.0" fill="#351e02" fill-rule="evenodd" stroke="none"/>
      <path d="M18.3 10.7 L18.75 10.6 Q23.8 11.95 26.45 17.1 28.8 21.6 28.55 27.3 28.3 32.65 25.9 36.6 23.2 41.15 18.7 41.9 L18.3 41.8 18.15 41.4 18.15 11.1 Q18.15 10.85 18.3 10.7" fill="#351e02" fill-rule="evenodd" stroke="none"/>
      <path d="M17.05 10.0 Q18.15 10.0 18.15 11.55 L18.15 40.95 Q18.15 42.5 17.05 42.5 15.95 42.5 15.95 40.95 L15.95 11.55 Q15.95 10.0 17.05 10.0" fill="#efad43" fill-rule="evenodd" stroke="none"/>
      <path d="M25.55 17.55 Q27.7 21.55 27.55 26.8 27.4 31.95 25.2 35.8 22.8 39.9 18.9 40.6 L18.9 11.9 Q23.25 13.1 25.55 17.55" fill="#f76908" fill-rule="evenodd" stroke="none"/>
      <path d="M23.95 17.0 Q26.15 19.5 26.3 22.3 24.4 19.6 18.9 18.6 L18.9 13.45 Q21.85 14.6 23.95 17.0" fill="#ffb02b" fill-rule="evenodd" stroke="none"/>
      <path d="M21.5 16.75 Q23.85 17.9 25.8 20.65 27.4 22.85 27.45 23.85 27.75 28.85 26.75 31.95 26.55 32.85 24.25 34.2 21.95 35.55 20.55 35.55 21.45 34.85 23.25 32.15 25.0 29.35 25.35 28.1 25.35 26.05 23.8 21.75 22.35 17.9 21.5 16.75" fill="#f8c606" fill-rule="evenodd" stroke="none"/>
      <path d="M25.85 20.7 L26.2 21.95 26.3 23.45 25.9 22.6 Q24.8 21.1 23.1 20.05 22.2 17.65 21.5 16.75 24.0 17.9 25.85 20.7" fill="#f8ed06" fill-rule="evenodd" stroke="none"/>
      <path d="M15.95 14.25 L15.95 12.15 18.15 12.3 18.15 14.5 Q17.2 13.9 15.95 14.25" fill="#ffffff" fill-rule="evenodd" stroke="none"/>
      <path d="M17.05 42.5 Q15.95 42.5 15.95 40.95 L15.95 33.8 18.15 33.25 18.15 40.95 Q18.15 42.5 17.05 42.5" fill="#b57036" fill-rule="evenodd" stroke="none"/>
      <path d="M18.15 26.25 L18.15 29.1 16.05 29.4 15.95 29.4 15.95 25.95 18.15 26.25" fill="#b57036" fill-rule="evenodd" stroke="none"/>
      <path d="M25.35 27.6 L20.85 28.55 18.9 28.95 18.9 26.3 19.65 26.4 25.2 26.65 25.35 27.6" fill="#d63b00" fill-rule="evenodd" stroke="none"/>
      <path d="M24.25 34.2 Q26.55 32.85 26.75 31.95 L26.9 31.5 Q24.9 39.5 18.9 40.6 L18.9 33.0 19.7 32.75 Q22.15 31.8 24.4 30.15 22.05 34.5 20.55 35.55 21.95 35.55 24.25 34.2" fill="#d63b00" fill-rule="evenodd" stroke="none"/>
      <path d="M27.5 27.5 L27.35 29.3 26.9 31.5 26.75 31.95 Q26.55 32.85 24.25 34.2 21.95 35.55 20.55 35.55 22.05 34.5 24.4 30.15 L27.5 27.5" fill="#e69106" fill-rule="evenodd" stroke="none"/>
      <path d="M25.2 26.65 L27.2 26.7 26.2 27.35 25.35 27.6 25.2 26.65" fill="#e69106" fill-rule="evenodd" stroke="none"/>
      <path d="M19.0 15.75 Q19.25 14.25 19.1 13.8 20.75 14.15 23.0 16.3 25.35 18.45 25.7 20.0 24.7 18.45 22.5 17.05 20.3 15.7 19.0 15.75" fill="#ffffff" fill-rule="evenodd" stroke="none"/>
    </g>
  </defs>
</svg>
